X:372
T:Glen Caladh Castle
C:John McLellan
R:March
M:C|
%%printtempo 0
Q:130
K:D
"D"(uA>d)|\
"D"f2 (ua>f) d3c|"G"(B<d)(g>B) "D/F#"A2 (d>c)|"G"B2 (e>f) "Em"(g>B)(e>d)|
"A"vc2 (ue2e2A>d)|"D"(vf>g)(a>f) d2 (d>c)|"G"B<d "A"c<e "D"a2 (d>c)|"G"B2(B>d) "A"(c<a)(g>e)|"D"d4 "G"d2::
"D"(uf>g)|\
"D"(a>f)(d>f) a2 (e>f)|"A"g>ec<e g2 (a>g)|"D"(f>d)(A>d) "Bm"(f<a)(g>f)|"A"(e>d)(c>d) e2 Lg2|
"D"(a>g)(f>e) (f<a) (d>c)|"G"(B<d)(g>B) "D/F#"A2 (d>c)|"G"B2(G>d) "A"c<a(g>e)|"D"d4 "G"d2::
"D"(ua>f)|\
"D"d2(A>a) f2(d>f) |(A>d)(f>d) (a>f)(e>d)|"A"c2 (A>g) e2(A>B)|(A>B)(c>d) (e>f)(g>e)|
d2(A>a)f2(d>f)|A>dd<f f<ad>c|"G"B2 (G>d)"A"(c<a) (g>e)|"D"d4"G"d2::
"D"(ua>f)|\
"D"(a>f)(d<f) A>dd<f|(A>B)(d>e)f2 (e>f)|"A"(g>e)(c<e) A>ec<e|g>Ac<e g2(f>g)|
"D"a>fd<f "A"A>dd<f|"D/F#"(A>B)(d>e) "D"(f>e)(d>c)|"G"B2(G>d) "A"(c<a)(g>e)|"D"d4 "G"d2:|"D"(uE>D)
